platform/icons/src/fileTypes/htaccess.svg

<svg id="Layer_1" data-name="Layer 1" xmlns="http://www.w3.org/2000/svg" width="16" height="16" viewBox="0 0 16 16">
  <defs>
    <linearGradient id="linear-gradient" x1="7.61175" y1="7.56844" x2="15.70474" y2="0.76111" gradientTransform="matrix(1, 0, 0, -1, 0, 16)" gradientUnits="userSpaceOnUse">
      <stop offset="0.05914" stop-color="#fdc403"/>
      <stop offset="0.26344" stop-color="#fdad03"/>
      <stop offset="0.56989" stop-color="#e76025"/>
      <stop offset="0.75806" stop-color="#ad2279"/>
    </linearGradient>
  </defs>
  <title>htaccess</title>
  <g>
    <g>
      <polygon points="7 0.988 3 4.988 7 4.988 7 0.988" fill="#9aa7b0" opacity="0.8" style="isolation: isolate"/>
      <path d="M10.23828,14.58063A9.11326,9.11326,0,0,1,7.002,7.98786V6.10407L8.5625,7.15974A13.69607,13.69607,0,0,0,12.3584,9.151c.21728.07324.427.1455.6416.23242V.98786H8v5H3v9h7.80566Q10.52369,14.80549,10.23828,14.58063Z" fill="#9aa7b0" opacity="0.8" style="isolation: isolate"/>
    </g>
    <g>
      <path d="M15.4287,14.84352a4.91257,4.91257,0,0,1-4.57044-1.0472A8.13471,8.13471,0,0,1,8.00173,7.98786c4.22257,2.85652,4.1495,1.52978,6.28436,3.42783A3.45225,3.45225,0,0,1,15.4287,14.84352Z" fill="url(#linear-gradient)"/>
      <path d="M14.28609,11.41569c-2.13486-1.898-2.06179-.57131-6.28436-3.42783a8.13467,8.13467,0,0,0,2.85653,5.80846,4.91257,4.91257,0,0,0,4.57044,1.0472A3.45225,3.45225,0,0,0,14.28609,11.41569Z" fill="url(#linear-gradient)"/>
      <path d="M16,15.98613a.44216.44216,0,0,1-.39974-.09541,11.082,11.082,0,0,0-3.04483-3.1143A15.27791,15.27791,0,0,1,8.33423,8.6568c2.20935,2.6027,2.42193,2.37726,4.79136,3.97291A11.49,11.49,0,0,1,16,15.41482Z" fill="#4898c9"/>
    </g>
  </g>
</svg>

<svg xmlns="http://www.w3.org/2000/svg" width="16" height="16" viewBox="0 0 16 16">
  <defs>
    <linearGradient id="htaccess-a" x1="50%" x2="50%" y1="0%" y2="100%">
      <stop offset="0%" stop-color="#FDC403"/>
      <stop offset="41.512%" stop-color="#F39513"/>
      <stop offset="68.312%" stop-color="#E76025"/>
      <stop offset="100%" stop-color="#AD2279"/>
    </linearGradient>
  </defs>
  <g fill="none" fill-rule="evenodd">
    <polygon fill="#9AA7B0" fill-opacity=".8" points="7 1 3 5 7 5"/>
    <path fill="#9AA7B0" fill-opacity=".8" d="M7.0023,7.9997 L7.0023,6.1157 L8.5623,7.1717 C10.6643,8.5937 11.6033,8.9087 12.3583,9.1627 C12.5763,9.2367 12.7853,9.3087 13.0003,9.3957 L13.0003,0.9997 L8.0003,0.9997 L8.0003,5.9997 L3.0003,5.9997 L3.0003,14.9997 L10.8053,14.9997 C10.6173,14.8787 10.4283,14.7427 10.2383,14.5927 C8.1133,12.9137 7.0023,10.0057 7.0023,7.9997 Z"/>
    <path fill="url(#htaccess-a)" d="M15.4268,14.85591 C15.4268,14.85591 13.2328,15.68591 10.8568,13.80791 C8.9878,12.33191 7.9998,9.71391 7.9998,8.00091 C12.2228,10.85691 12.1498,9.52991 14.2838,11.42791 C15.9978,12.95191 15.4268,14.85591 15.4268,14.85591"/>
    <path fill="#40B6E0" d="M16,15.998 C16,15.998 15.804,16.065 15.601,15.903 C15.326,15.684 14.607,14.102 12.556,12.788 C10.689,11.595 9.82,10.561 8.334,8.669 C10.544,11.271 10.756,11.046 13.126,12.642 C14.33,13.453 15.55,14.703 16,15.427 L16,15.998 Z"/>
  </g>
</svg>
